X:397
T:Mclean of Pennycross 
C:Joe Buchanan's Scottish Tome - Page 353.0
I:353 0
C:PM A.Ferguson
R:March
Z:Carl Allison
L:1/16
M:4/4
K:A
ed | {cd}(c>d)(A<a) c<ec>A | (c<e{g}a>e) {fg}f2e>c | (A>B)(c<a) (c<f){gf}(e>(c) | d)>cB<A {Bc}B2(ed) |
{cd}(c>B)(A<g) c<ec<A | (c<e){g}(ge) {fg}f2(e>c) | (A>B)(c<g) (c<e)(d>c) | {d}c2A2 {AB}A2 :|
(c>d) | e>(cA>c) {c}a2(f<a) | {fg}f>ed<f {d}e2(c<e) | (A>B)(c<a) (c<f){gf}(e>(c) | d)>cB<A B2(c>d) |
e>(c(A)<c) {c}a2(f<a) | {fg}(f>e)(d>f) e2(c<e) | (A>B)(c<a) c<ed>(B | {d}c2)A2 A2(c>d) |
e>(cA>c) {c}a2(f<a) | (f>e)(d<f) {f}e2(ce) | (A>B)(c<a) c<f{gf}e>(c | d)>(cB<A) B2(e>d) |
{cd}(c>B)(A<a) c<ec<A | (c<e)(a>e) {fg}f2(ec) | (A>B)(c<a) (c<e)(d>B) | {d}c2A2 {AB}A2 |]
|: e2 | ((3AAA) (c<A) (eA){d}(cB) | (A>A)(A<a) {fg}f2(e>c) | (A>B)(c<a) (c<f){gf}e>(c | d)>cB<A B2a2 |
((3AAA) cA (e>A){d}(c>B) | (A>A)(A<a) {fg}f2(e>c) | A>B(c<a) (c<e)d>(B | {d}c2)A2 {AB}A2 :|
f>g | {g}a>(ga)>(e f<a)(e>c) | ((3eee) (a>e) f2(e>c) | (A>B)(c<a) (c<f){gf}e(c | d)>(cB<A) B2(f>g) |
{g}a>(ga)>(e fa){a}(ec) | ((3eee) (a>e) {fg}f2e>c | (A>B)(c<a) (c<e)d>(B | {d}c2)A2 {AB}A2(f>g) |
{g}a>(ga)<(e f<a)(e>c) | ((3eee) (a>e) {fg}f2(e>c) | (A>B)(c<a) (c<f){gf}(e>(c) | d)>cB<A B2 {g}a2 |
((3AAA) (c<A) (f>e)(f<a) | (c<e)(a>e) {fg}f2(e>c) | (A>B)(c<a) (c<e)d(B | {d}c2)A2 !fermata![EA]2 |]

